symbols/web/music_video/materialsymbolssharp/music_video_wght200gradN25_20px.svg

<svg xmlns="http://www.w3.org/2000/svg" height="20" width="20"><path d="M2.625 15.708V4.292h14.75v11.416Zm.854-.833v-9.75Zm0-9.75v9.75h13.042v-9.75Zm5.604 8.646q.688 0 1.167-.479.479-.48.479-1.167V7.542h2.188v-1.25h-2.813v4.562q-.208-.187-.458-.281-.25-.094-.563-.094-.687 0-1.166.479-.479.48-.479 1.167t.479 1.167q.479.479 1.166.479Z"/></svg>

<svg xmlns="http://www.w3.org/2000/svg" height="20" width="20"><path d="M2.625 15.708V4.292H17.375V15.708ZM3.479 14.875V5.125ZM3.479 5.125V14.875H16.521V5.125ZM9.083 13.771Q9.771 13.771 10.25 13.292Q10.729 12.812 10.729 12.125V7.542H12.917V6.292H10.104V10.854Q9.896 10.667 9.646 10.573Q9.396 10.479 9.083 10.479Q8.396 10.479 7.917 10.958Q7.438 11.438 7.438 12.125Q7.438 12.812 7.917 13.292Q8.396 13.771 9.083 13.771Z"/></svg>
